!! 00000] TT[WS
!!!OTL: Erbuliuliu  huangfeng yanshanshan gua
!!!ARE: Asia, China,ÿShanxi Ningwu
!! Ethnic Group: Han
!! WI, 135 (1)
!!!SCT: J0162
!!!YEM: Copyright 1995, estate of Helmut Schaffrath.
**kern
*ICvox
*Ivox
*M2/4
*k[f#]
*G:
{8ee
16ee
16dd
8b
16a
16b
=1
4.dd
8gg
=2
8ee
16ee
16dd
8b
16b
16a
=3
4.g
8e}
=4
{16g
16e
16g
16a
8dd
16dd
16b
=5
16a
16b
16g
16a
4b
=6
16e
16g
16e
16g
8a
16g
16e
=7
8.d
16e
4d}
==
!!!AGN: Xiaodiao. Qingge
!!!ONB: ESAC (Essen Associative Code) Database: CHINA
!!!AMT: simple duple
!!!AIN: vox
!!!EED: Helmut Schaffrath
!!!EEV: 1.0
*-
